!!!OTL: 368. Die Strickerin.
!!!COM: J. A. P. Schulz
!!!ODT: 1780
!!!ARE: Europa, Mitteleuropa, Deutschland
!!!SCT: B0368
!!!TXL: @@DE
!!!YEM: Copyright 1995, estate of Helmut Schaffrath.
**kern	**text
*ICvox	*
*Ivox	*
*clefG2	*
*M6/8	*
*k[b-]	*
*F:	*
!LO:TX:a:t=Andante.	!
{8c	Be-
=1	=1
4a	-ſchat-
8g	-tet
4f	von
8c	der
=2	=2
4cc	Pap-
8b-	-pel-
8a	-wei-
8f}	-de
{8a	am
=3	=3
4g	grün-
8g	-be-
8gL	-ſchilf-
8ccJ	.
8a	-ten
=4	=4
4.g	Sumpf
4r}	.
{8c	ſaß
=5	=5
4a	He-
8g	-de-
4f	-wig
8c	im
=6	=6
4cc	ro-
8b-	-then
8a	Klei-
8f}	-de
{8a	und
=7	=7
4g	ſtrickt'
8g	ein'
8gL	klei-
8ccJ	.
8a	-nen
=8	=8
4.g	Strumpf.
4r}	.
{8c	Sie
=9	=9
4a	ſtrickt'
8b-	und
4cc	ſang
8cc	mit
=10	=10
4a	ſü-
8b-	-ßem
4cc}	Ton
{8cc	ein
=11	=11
4ff	Lied,
8cc	ich
8b-/L	weiß
8aJ	.
8g	nicht
=12	=12
4f	mehr
8f	wo-
4f}	-von.
==	==
!!!AGN: Liebes - Lied, Liebes - Lust, Anmache
!!!GTL: Liebeslieder - Liebeslust
!!!ONB: ESAC (Essen Associative Code) Database: BOEHME
!!!AMT: compound duple
!!!AIN: vox
!!!EED: Helmut Schaffrath
!!!EEV: 1.0
!!Mel. von J. A. P. Schulʒ. 1780.
!!@@COMMENT:"Gedicht von J. H. Voß. Ʒuerſt in ſeinem "Muſenalm. für 1781", Hamburg. Daſelbſt S. 25.
!!Melodie daſelbſt, dann in Schulʒ' "Lieder im Volkston". Berlin 1782. 1. S. 15. [...]"
!!@@END:
!!!Text: J. H. Voß
!!!URL-scan: https://archive.org/details/BoehmeVtLieder1895/page/n305/mode/2up
!!!ENC: Anna Maria Matuszewska
!!!EEV: 2024/05/07
*-	*-
